assets/icons/viber.svg

<svg width="35" height="35" viewBox="0 0 35 35" fill="none" xmlns="http://www.w3.org/2000/svg">
<path d="M17.4965 2.8C17.9048 3.09169 18.2548 3.15 19.3048 3.20831C22.3965 3.38331 24.3215 4.08331 26.4798 5.65831C29.1631 7.58331 30.8548 10.325 31.4382 13.7083C31.6132 14.5833 31.6715 15.3416 31.7298 16.45C31.7882 17.2667 31.7881 17.5583 31.9632 17.85C32.2548 18.3167 32.7215 18.6083 33.2465 18.6667C33.3048 18.6667 33.3632 18.6667 33.4215 18.6667C33.8882 18.6667 34.3548 18.4334 34.5882 18.025C34.9965 17.5583 34.9965 17.15 34.9382 16.2167C34.8215 13.3584 34.2382 10.7334 33.0715 8.51669C32.2548 6.94169 31.4965 5.89169 30.0965 4.55C28.6382 3.15 27.5298 2.33331 25.7798 1.51669C23.9715 0.641689 22.6881 0.35 20.7631 0.116689C20.4132 0.0583105 19.7132 0 19.1882 0C18.2549 0 17.8465 0 17.4382 0.408311C17.0882 0.7 16.9132 1.16662 16.9132 1.63331C16.9132 2.1 17.1465 2.50831 17.4965 2.8ZM18.1965 1.28331C18.2548 1.225 18.3132 1.16662 18.7215 1.16662C18.8382 1.16662 18.9548 1.16662 19.1298 1.16662C19.5965 1.16662 20.2965 1.22493 20.6465 1.28331C22.4548 1.51662 23.6215 1.75 25.3132 2.56662C26.9465 3.38331 27.9382 4.08331 29.3382 5.42493C30.6215 6.70824 31.3215 7.64162 32.0799 9.09993C33.1299 11.1999 33.7132 13.5916 33.8299 16.3332C33.8299 17.2082 33.8299 17.2666 33.7132 17.3249C33.6549 17.4416 33.4799 17.4416 33.3632 17.4416C33.2465 17.4416 33.0715 17.3833 33.0132 17.2666C32.9549 17.2083 32.9549 17.0916 32.8965 16.3916C32.8382 15.2249 32.7798 14.4083 32.6048 13.4749C31.9048 9.74162 30.0965 6.76662 27.1798 4.66662C24.8465 2.97493 22.6882 2.21662 19.3632 2.04162C18.3715 1.98331 18.3132 1.92493 18.1965 1.86662C18.1382 1.80831 18.0798 1.69162 18.0798 1.57493C18.0798 1.45824 18.1382 1.34169 18.1965 1.28331Z" fill="white"/>
<path d="M27.0632 15.3417C27.0632 16.1584 27.1215 16.9167 27.9382 17.325C28.1715 17.4417 28.4632 17.5 28.7549 17.5C28.9882 17.5 29.2799 17.4417 29.4549 17.325C29.7466 17.2083 30.0966 16.8 30.2132 16.5083C30.3882 16.1 30.3299 14.5833 30.2715 14.175C30.0382 12.3083 29.3965 10.5583 28.4048 9.1C26.5381 6.41669 23.7965 4.84169 20.2381 4.31669C19.0131 4.14169 18.1381 4.08338 17.6131 4.9C17.2048 5.48331 17.2631 6.3 17.7298 6.825C18.1381 7.29169 18.6631 7.35 19.1881 7.40831C20.5881 7.525 22.1631 7.99162 23.2131 8.575C24.4381 9.275 25.4298 10.325 26.1298 11.55C26.7132 12.6583 27.0632 14 27.0632 15.3417ZM23.8548 7.58331C22.6298 6.88331 20.8798 6.41662 19.1881 6.3C18.7214 6.3 18.6048 6.18331 18.5464 6.125C18.4298 5.95 18.4298 5.775 18.5464 5.6C18.6631 5.48331 18.7214 5.36669 20.0631 5.54169C23.3298 6.00838 25.7798 7.40838 27.4131 9.8C28.3464 11.0833 28.9298 12.6583 29.1048 14.35C29.2215 14.9333 29.1631 15.925 29.1631 16.1C29.1048 16.1583 28.9881 16.275 28.9298 16.3333C28.8715 16.3333 28.5798 16.3333 28.5215 16.275C28.4048 16.2167 28.2882 16.1583 28.2882 15.3417C28.2882 13.825 27.8799 12.1917 27.1799 10.9667C26.4215 9.56669 25.2548 8.4 23.8548 7.58331Z" fill="white"/>
<path d="M23.8548 10.3833C23.0965 9.62498 22.1631 9.15829 20.9381 8.92498C20.6464 8.86667 20.1798 8.80829 19.8881 8.80829C19.4214 8.80829 19.1881 8.80829 18.8381 8.98329C18.4298 9.2166 18.1381 9.62498 18.0214 10.0916C17.9047 10.5583 18.0797 11.0833 18.3714 11.4333C18.7797 11.8416 19.1297 11.9 19.8881 12.0166C21.1714 12.1333 21.8714 12.5999 22.2798 13.4166C22.5131 13.8249 22.6298 14.2916 22.6881 14.9916C22.7464 15.5749 22.8631 15.9833 23.3298 16.3333C23.6215 16.5083 23.9715 16.625 24.3215 16.625C24.7298 16.625 25.0798 16.5083 25.2548 16.3333C25.8381 15.8083 25.8965 15.1083 25.7215 14.1166C25.4298 12.4833 24.9048 11.3167 23.8548 10.3833ZM24.5548 15.4C24.4381 15.5167 24.1465 15.5167 23.9715 15.4C23.9131 15.3417 23.8548 15.3417 23.7965 14.875C23.7381 14.1167 23.6215 13.5333 23.3298 12.95C22.7465 11.725 21.6965 11.025 20.0631 10.85C19.4214 10.7333 19.3631 10.7333 19.3048 10.6167C19.2465 10.5 19.2465 10.3834 19.2465 10.2667C19.3048 10.15 19.3631 10.0334 19.4798 9.97498C19.5381 9.91667 19.5381 9.91667 19.6548 9.91667C19.7131 9.91667 19.8298 9.91667 19.8881 9.91667C20.1798 9.97498 20.5881 9.97498 20.7631 10.0334C21.7548 10.2667 22.5131 10.6167 23.1548 11.2C23.9715 11.9584 24.4381 12.8917 24.6131 14.2334C24.7881 15.1667 24.6715 15.2833 24.5548 15.4Z" fill="white"/>
<path d="M34.3549 26.5417C33.9465 26.075 31.4382 24.0917 30.3298 23.3334C29.4548 22.7501 28.0548 21.9334 27.4132 21.5834C26.4799 21.1167 25.4882 21.0584 24.5548 21.3501C24.3798 21.4084 24.2048 21.4667 24.0882 21.5251C23.6215 21.7584 23.2715 22.1667 22.5715 22.9834C21.8715 23.8584 21.6965 24.0334 21.6965 24.0334C21.6382 24.0917 21.5215 24.1501 21.4048 24.2084H21.3465C20.8215 24.5001 19.9465 24.2667 18.4882 23.5667C17.2632 22.9834 16.1549 22.225 14.9299 21.1167C13.8799 20.1834 12.8299 18.9584 12.2465 18.025C11.4299 16.6833 10.9049 15.1667 10.9049 14.4667C10.9049 14.175 11.0215 13.7667 11.1382 13.5917L11.1965 13.5334C11.1965 13.5334 11.2548 13.4751 11.3132 13.4167C11.5465 13.2417 11.8382 13.0084 12.1299 12.775C13.4715 11.725 13.8799 11.3167 14.1132 10.5C14.3465 9.74168 14.1715 8.86668 13.5299 7.64168C12.5965 5.83337 9.56316 1.98337 8.33816 1.16668C8.16316 0.991681 7.81316 0.816681 7.57985 0.75837C7.05485 0.52506 6.35485 0.466681 5.88816 0.58337C5.24647 0.70006 4.54647 1.10837 3.02985 2.27506C2.15485 2.85837 0.871542 4.08337 0.521542 4.66675C-0.295147 6.06675 -0.0617682 7.23344 0.638232 9.27506C1.33823 11.2001 2.27154 13.1251 3.37992 15.0501L3.43823 15.1667C3.67154 15.5167 3.90492 15.9251 4.13823 16.2751L4.19654 16.3917C4.42985 16.7417 4.66323 17.1501 4.89654 17.5001L5.30485 18.0834C5.47985 18.3167 5.59654 18.4917 5.77154 18.7251C6.06323 19.1334 6.41323 19.5417 6.70485 19.9501C10.0882 24.3251 13.9965 27.8834 18.6049 30.7417L18.7799 30.8584C19.4215 31.2667 20.1215 31.6751 20.8799 32.0834L21.1715 32.2584C21.9299 32.6667 22.6299 33.0167 23.3882 33.3667L23.6215 33.4834C24.4965 33.8917 25.2549 34.2417 26.0132 34.5334C26.9465 34.8834 27.3549 35.0001 27.9965 35.0001C28.1132 35.0001 28.2298 35.0001 28.3465 35.0001C28.7549 35.0001 29.1632 34.9418 29.5132 34.8251C30.0382 34.6501 30.5049 34.4168 31.0882 34.0084C31.1465 33.9501 31.2632 33.8334 31.3799 33.7751C31.4966 33.6584 31.6716 33.5418 31.7882 33.4251C32.4299 32.9001 33.1882 32.0834 33.7715 31.2668C34.0632 30.8585 34.4715 30.2168 34.7048 29.6918C34.9382 29.2251 34.9965 28.7001 34.9965 28.2335C34.9965 27.5917 34.7632 27.0083 34.3549 26.5417ZM33.6549 29.2833C33.5382 29.6333 33.2465 30.1 32.8382 30.625C32.3132 31.3833 31.6132 32.0833 31.0298 32.6083C30.9132 32.725 30.7965 32.8416 30.6798 32.9C30.5632 32.9583 30.5048 33.0167 30.3882 33.075C29.9215 33.425 29.5132 33.6 29.1632 33.7167C28.8715 33.775 28.5798 33.8334 28.2882 33.8334C27.6465 33.8334 27.4132 33.8334 26.4798 33.4834C25.7799 33.1334 25.0215 32.8417 24.1465 32.4334L23.9132 32.3167C23.2132 31.9667 22.4549 31.6167 21.7549 31.2084L21.4632 31.0334C20.7632 30.6834 20.0632 30.2751 19.4215 29.8667L19.2465 29.75C14.6965 26.95 10.9049 23.5083 7.63823 19.25C7.34654 18.8417 7.05492 18.4333 6.76323 18.025C6.58823 17.7917 6.41323 17.6167 6.29654 17.3833L5.94654 16.8583C5.65485 16.5083 5.42154 16.1583 5.18823 15.75L5.12992 15.6917C4.89661 15.3417 4.72161 14.9334 4.48823 14.5834L4.42992 14.4667C3.32161 12.6584 2.44661 10.7334 1.74661 8.86668C0.929921 6.76668 1.04661 6.06668 1.5133 5.24999C1.74661 4.89999 2.85499 3.79168 3.72999 3.2083C5.01323 2.21668 5.71323 1.8083 6.12154 1.74999C6.35485 1.69168 6.87985 1.74999 7.17154 1.86668C7.28823 1.92499 7.52154 2.04168 7.69654 2.15837C8.57154 2.74168 11.4882 6.30006 12.4799 8.16668C12.9465 9.04168 13.1215 9.74168 13.0049 10.15C12.8882 10.5583 12.7715 10.7917 11.4299 11.8417C11.0799 12.075 10.7882 12.3667 10.5549 12.5417C10.4965 12.6 10.4382 12.6584 10.3799 12.7167L10.3215 12.775C10.2632 12.8333 10.2049 12.8333 10.2049 12.8917L10.1465 12.95C9.85485 13.3 9.67985 14 9.67985 14.525C9.73816 15.575 10.3215 17.2667 11.1965 18.6667C11.8382 19.6584 13.0049 21 14.1132 21.9917C15.3965 23.1584 16.5632 23.975 17.9049 24.6167C19.6549 25.4334 20.7632 25.6667 21.6966 25.3167H21.7549L21.8716 25.2584C21.9883 25.2001 22.1633 25.1417 22.2216 25.0834C22.2799 25.0251 22.3383 25.0251 22.3966 24.9667C22.4549 24.9084 22.5133 24.85 23.4466 23.7417C24.1466 22.925 24.3799 22.6917 24.6133 22.575C24.6716 22.5167 24.7883 22.5167 24.905 22.4583C25.5467 22.225 26.1883 22.2833 26.8883 22.6333C27.4716 22.9833 28.8133 23.7416 29.63 24.325C30.855 25.1417 33.1883 27.0083 33.4217 27.3C33.7134 27.5917 33.83 27.8833 33.83 28.2917C33.8298 28.5833 33.7715 28.9333 33.6549 29.2833Z" fill="white"/>
</svg>

<svg width="35" height="35" fill="none" xmlns="http://www.w3.org/2000/svg"><path d="M17.497 2.8c.408.292.758.35 1.808.408 3.091.175 5.017.875 7.175 2.45 2.683 1.925 4.375 4.667 4.958 8.05.175.875.234 1.634.292 2.742.058.817.058 1.108.233 1.4a1.73 1.73 0 001.283.817h.175c.467 0 .934-.234 1.167-.642.408-.467.408-.875.35-1.808-.117-2.859-.7-5.484-1.867-7.7-.816-1.575-1.574-2.625-2.974-3.967-1.459-1.4-2.567-2.217-4.317-3.033C23.97.642 22.688.35 20.763.117A11.62 11.62 0 0019.188 0c-.933 0-1.341 0-1.75.408-.35.292-.525.759-.525 1.225 0 .467.233.875.584 1.167zm.7-1.517c.058-.058.116-.116.524-.116h.409c.466 0 1.167.058 1.517.116 1.808.234 2.975.467 4.666 1.284 1.634.816 2.625 1.516 4.025 2.858 1.284 1.283 1.983 2.217 2.742 3.675 1.05 2.1 1.633 4.492 1.75 7.233 0 .875 0 .934-.117.992-.058.117-.233.117-.35.117-.117 0-.291-.059-.35-.175-.058-.059-.058-.175-.116-.875-.059-1.167-.117-1.984-.292-2.917-.7-3.733-2.508-6.708-5.425-8.808-2.334-1.692-4.492-2.45-7.817-2.625-.991-.059-1.05-.117-1.166-.175a.446.446 0 01-.117-.292c0-.117.058-.233.117-.292z" fill="#fff"/><path d="M27.063 15.342c0 .816.059 1.575.875 1.983.234.117.525.175.817.175.233 0 .525-.058.7-.175.292-.117.642-.525.758-.817.175-.408.117-1.925.058-2.333-.233-1.867-.875-3.617-1.866-5.075-1.867-2.683-4.608-4.258-8.167-4.783-1.225-.175-2.1-.234-2.625.583-.408.583-.35 1.4.117 1.925.408.467.933.525 1.458.583 1.4.117 2.975.584 4.025 1.167 1.225.7 2.217 1.75 2.917 2.975a8.282 8.282 0 01.933 3.792zm-3.208-7.759c-1.225-.7-2.975-1.166-4.667-1.283-.467 0-.583-.117-.642-.175a.438.438 0 010-.525c.117-.117.175-.233 1.517-.058 3.267.466 5.717 1.866 7.35 4.258.933 1.283 1.517 2.858 1.692 4.55.116.583.058 1.575.058 1.75l-.233.233c-.058 0-.35 0-.409-.058-.116-.058-.233-.117-.233-.933 0-1.517-.408-3.15-1.108-4.375-.758-1.4-1.925-2.567-3.325-3.384z" fill="#fff"/><path d="M23.855 10.383c-.759-.758-1.692-1.225-2.917-1.458a6.43 6.43 0 00-1.05-.117c-.467 0-.7 0-1.05.175-.408.234-.7.642-.817 1.109-.116.466.059.991.35 1.341.409.409.759.467 1.517.584 1.283.116 1.983.583 2.392 1.4.233.408.35.875.408 1.575.058.583.175.991.642 1.341.292.175.642.292.992.292.408 0 .758-.117.933-.292.583-.525.642-1.225.466-2.216-.291-1.634-.816-2.8-1.866-3.734zm.7 5.017c-.117.117-.409.117-.584 0-.058-.058-.116-.058-.174-.525-.059-.758-.175-1.342-.467-1.925-.583-1.225-1.633-1.925-3.267-2.1-.642-.117-.7-.117-.758-.233-.058-.117-.058-.234-.058-.35.058-.117.116-.234.233-.292.058-.058.058-.058.175-.058h.233c.292.058.7.058.875.116.992.234 1.75.584 2.392 1.167.816.758 1.283 1.692 1.458 3.033.175.934.059 1.05-.058 1.167z" fill="#fff"/><path d="M34.355 26.542c-.408-.467-2.917-2.45-4.025-3.209a48 48 0 00-2.917-1.75 3.768 3.768 0 00-2.858-.233 4.05 4.05 0 00-.467.175c-.466.233-.817.642-1.517 1.458-.7.875-.875 1.05-.875 1.05a1.274 1.274 0 01-.291.175h-.059c-.524.292-1.4.059-2.858-.641-1.225-.584-2.333-1.342-3.558-2.45-1.05-.934-2.1-2.159-2.684-3.092-.816-1.342-1.341-2.858-1.341-3.558 0-.292.117-.7.233-.875l.059-.059.116-.116c.233-.175.525-.409.817-.642 1.341-1.05 1.75-1.458 1.983-2.275.234-.758.059-1.633-.583-2.858-.933-1.809-3.967-5.659-5.192-6.475-.175-.175-.525-.35-.758-.409C7.055.525 6.355.467 5.888.583 5.246.7 4.546 1.108 3.03 2.275 2.155 2.858.872 4.083.522 4.667c-.817 1.4-.584 2.566.116 4.608.7 1.925 1.634 3.85 2.742 5.775l.058.117c.234.35.467.758.7 1.108l.059.117c.233.35.466.758.7 1.108l.408.583c.175.234.292.409.467.642.291.408.641.817.933 1.225 3.383 4.375 7.291 7.933 11.9 10.792l.175.116c.642.409 1.341.817 2.1 1.225l.292.175c.758.409 1.458.759 2.216 1.109l.233.116c.876.409 1.634.759 2.392 1.05.933.35 1.342.467 1.983.467h.35a3.76 3.76 0 001.167-.175c.525-.175.992-.408 1.575-.817.058-.058.175-.175.292-.233.117-.117.292-.233.408-.35.642-.525 1.4-1.342 1.984-2.158.291-.409.7-1.05.933-1.575.233-.467.291-.992.291-1.459a2.54 2.54 0 00-.641-1.691zm-.7 2.741c-.117.35-.409.817-.817 1.342-.525.758-1.225 1.458-1.808 1.983-.117.117-.233.234-.35.292-.117.058-.175.117-.292.175-.466.35-.875.525-1.225.642-.291.058-.583.116-.875.116-.642 0-.875 0-1.808-.35-.7-.35-1.459-.641-2.334-1.05l-.233-.116c-.7-.35-1.458-.7-2.158-1.109l-.292-.175c-.7-.35-1.4-.758-2.041-1.166l-.175-.117c-4.55-2.8-8.342-6.242-11.609-10.5l-.875-1.225c-.175-.233-.35-.408-.466-.642l-.35-.525c-.292-.35-.525-.7-.759-1.108l-.058-.058c-.233-.35-.408-.759-.642-1.109l-.058-.116c-1.108-1.809-1.983-3.734-2.683-5.6-.817-2.1-.7-2.8-.234-3.617.234-.35 1.342-1.458 2.217-2.042 1.283-.991 1.983-1.4 2.392-1.458.233-.058.758 0 1.05.117.116.058.35.175.525.291.875.584 3.791 4.142 4.783 6.009.466.875.641 1.575.525 1.983-.117.408-.234.642-1.575 1.692-.35.233-.642.525-.875.7l-.175.175-.059.058c-.058.058-.116.058-.116.117l-.059.058c-.291.35-.466 1.05-.466 1.575.058 1.05.642 2.742 1.517 4.142.641.991 1.808 2.333 2.916 3.325 1.284 1.166 2.45 1.983 3.792 2.625 1.75.816 2.858 1.05 3.792.7h.058l.117-.059c.116-.058.291-.116.35-.175.058-.058.116-.058.175-.116.058-.059.116-.117 1.05-1.225.7-.817.933-1.05 1.166-1.167.059-.058.175-.058.292-.117.642-.233 1.283-.175 1.983.175.584.35 1.925 1.109 2.742 1.692 1.225.817 3.558 2.683 3.792 2.975.291.292.408.583.408.992 0 .291-.058.641-.175.991z" fill="#fff"/></svg>
